X: 20907
T: Josh's Slip
R: jig
M: 6/8
K: Gmajor
|:B2A GED|EGA GED|B2A GEG|ABd e2d|
B2A GED|EGA GED|BAG EDE|GBG ~A3:|
|:ABd ~e3|dBA Bdg|~e3 dBA|GAB ~A3|
ABd ~e3|dBA GED|~E3 DG/B/e|dBA ~G3:|

